assets/icons/github.svg

<?xml version="1.0" encoding="utf-8"?>
<!-- Generator: Adobe Illustrator 22.1.0, SVG Export Plug-In . SVG Version: 6.00 Build 0)  -->
<svg version="1.1" id="Layer_1" xmlns="http://www.w3.org/2000/svg" xmlns:xlink="http://www.w3.org/1999/xlink" x="0px" y="0px"
	 viewBox="0 0 26 26" style="enable-background:new 0 0 26 26;" xml:space="preserve">
<style type="text/css">
	.st0{fill:#FFFFFF;}
</style>
<g>
	<g>
		<path class="st0" d="M13,0C5.8,0,0,5.8,0,13c0,5.8,3.7,10.6,8.9,12.3c0.6,0.1,0.9-0.3,0.9-0.6c0-0.3,0-1.3,0-2.4
			c-3.3,0.6-4.1-0.8-4.4-1.5c-0.1-0.4-0.8-1.5-1.3-1.8c-0.5-0.2-1.1-0.8,0-0.9c1,0,1.8,0.9,2,1.3c1.2,2,3,1.4,3.8,1.1
			c0.1-0.8,0.5-1.4,0.8-1.7c-2.9-0.3-5.9-1.4-5.9-6.4c0-1.4,0.5-2.6,1.3-3.5C5.9,8.5,5.5,7.2,6.2,5.4c0,0,1.1-0.3,3.6,1.3
			c1-0.3,2.1-0.4,3.3-0.4c1.1,0,2.2,0.1,3.3,0.4c2.5-1.7,3.6-1.3,3.6-1.3c0.7,1.8,0.3,3.1,0.1,3.4c0.8,0.9,1.3,2.1,1.3,3.5
			c0,5-3,6.1-5.9,6.4c0.5,0.4,0.9,1.2,0.9,2.4c0,1.7,0,3.1,0,3.6c0,0.3,0.2,0.7,0.9,0.6C22.3,23.6,26,18.7,26,13C26,5.8,20.2,0,13,0
			z"/>
	</g>
</g>
</svg>

<svg viewBox="0 0 26 26" fill="none" xmlns="http://www.w3.org/2000/svg">
<path d="M13 0C5.8 0 0 5.8 0 13C0 18.8 3.7 23.6 8.9 25.3C9.5 25.4 9.8 25 9.8 24.7C9.8 24.4 9.8 23.4 9.8 22.3C6.5 22.9 5.7 21.5 5.4 20.8C5.3 20.4 4.6 19.3 4.1 19C3.6 18.8 3 18.2 4.1 18.1C5.1 18.1 5.9 19 6.1 19.4C7.3 21.4 9.1 20.8 9.9 20.5C10 19.7 10.4 19.1 10.7 18.8C7.8 18.5 4.8 17.4 4.8 12.4C4.8 11 5.3 9.8 6.1 8.9C5.9 8.5 5.5 7.2 6.2 5.4C6.2 5.4 7.3 5.1 9.8 6.7C10.8 6.4 11.9 6.3 13.1 6.3C14.2 6.3 15.3 6.4 16.4 6.7C18.9 5 20 5.4 20 5.4C20.7 7.2 20.3 8.5 20.1 8.8C20.9 9.7 21.4 10.9 21.4 12.3C21.4 17.3 18.4 18.4 15.5 18.7C16 19.1 16.4 19.9 16.4 21.1C16.4 22.8 16.4 24.2 16.4 24.7C16.4 25 16.6 25.4 17.3 25.3C22.3 23.6 26 18.7 26 13C26 5.8 20.2 0 13 0Z" fill="#505050"/>
</svg>
